public/img/ico-cadastro.svg

<svg width="44" height="60" viewBox="0 0 44 60" fill="none" xmlns="http://www.w3.org/2000/svg">
<path d="M37.832 2.07343V2.57343H38.332H40.4499C41.8325 2.57343 42.9663 3.7112 42.9663 5.11879V56.9546C42.9663 58.3622 41.8325 59.5 40.4499 59.5H3.48273C2.10009 59.5 0.966309 58.3622 0.966309 56.9546V5.11879C0.966309 3.7112 2.10009 2.57343 3.48273 2.57343H5.60064H6.10064V2.07343V1.98338V0.971922C6.10064 0.706663 6.31217 0.5 6.56332 0.5C6.81448 0.5 7.02601 0.706663 7.02601 0.971922V1.98338V2.48338H7.52601H9.64392H11.7618H12.2618V1.98338V0.971922C12.2618 0.706663 12.4734 0.5 12.7245 0.5C12.9757 0.5 13.1872 0.706663 13.1872 0.971922V1.98338V2.48338H13.6872H15.8051H16.8641H17.923H18.423V1.98338V0.971922C18.423 0.706663 18.6346 0.5 18.8857 0.5C19.1369 0.5 19.3484 0.706663 19.3484 0.971922V1.98338V2.48338H19.8484H21.9663H24.0842H24.5842V1.98338V0.971922C24.5842 0.706663 24.7957 0.5 25.0469 0.5C25.2981 0.5 25.5096 0.706665 25.5096 0.971922V1.98338V2.48338H26.0096H28.1275H30.2454H30.7454V1.98338V0.971922C30.7454 0.706662 30.9569 0.5 31.2081 0.5C31.4593 0.5 31.6708 0.706663 31.6708 0.971922V1.98338V2.48338H32.1708H34.2887H36.4066H36.9066V1.98338V0.971922C36.9066 0.706665 37.1181 0.5 37.3693 0.5C37.6204 0.5 37.832 0.706665 37.832 0.971922V1.98338V2.07343Z" stroke="#FF9944"/>
<path d="M6.68945 13.5257L9.20672 16.1625L11.9086 13.3323L14.6105 10.5021" stroke="#FF9944"/>
<path d="M18.8857 12.0249H32.4647" stroke="#FF9944"/>
<path d="M18.8857 16.1718H36.991" stroke="#FF9944"/>
<path d="M6.68945 24.8272L9.20672 27.464L11.9086 24.6338L14.6105 21.8036" stroke="#FF9944"/>
<path d="M18.8857 23.5242H32.4647" stroke="#FF9944"/>
<path d="M18.8857 27.6711H36.991" stroke="#FF9944"/>
<path d="M6.68945 35.3357L9.20672 37.9725L11.9086 35.1423L14.6105 32.3121" stroke="#FF9944"/>
<path d="M18.8857 33.8914H32.4647" stroke="#FF9944"/>
<path d="M18.8857 38.0382H36.991" stroke="#FF9944"/>
<path d="M6.68945 46.6373L9.20672 49.2741L11.9086 46.4439L14.6105 43.6137" stroke="#FF9944"/>
<path d="M18.8857 45.3906H32.4647" stroke="#FF9944"/>
<path d="M18.8857 49.5375H36.991" stroke="#FF9944"/>
</svg>

<svg width="44" height="60" fill="none" xmlns="http://www.w3.org/2000/svg"><path d="M37.832 2.073v.5h2.618c1.383 0 2.516 1.138 2.516 2.546v51.836c0 1.407-1.133 2.545-2.516 2.545H3.483C2.1 59.5.966 58.362.966 56.955V5.119c0-1.408 1.134-2.546 2.517-2.546H6.1V.972C6.1.707 6.312.5 6.563.5s.463.207.463.472v1.511h5.236V.972c0-.265.211-.472.463-.472.25 0 .462.207.462.472v1.511h5.236V.972c0-.265.212-.472.463-.472.25 0 .462.207.462.472v1.511h5.236V.972c0-.265.212-.472.463-.472s.463.207.463.472v1.511H30.745V.972c0-.265.212-.472.463-.472s.463.207.463.472v1.511h5.236V.972c0-.265.211-.472.462-.472s.463.207.463.472v1.101z" stroke="#F94"/><path d="M6.69 13.526l2.517 2.637 2.702-2.83 2.701-2.83M18.886 12.025h13.579M18.886 16.172H36.99M6.69 24.827l2.517 2.637 2.702-2.83 2.701-2.83M18.886 23.524h13.579M18.886 27.671H36.99M6.69 35.336l2.517 2.636 2.702-2.83 2.701-2.83M18.886 33.891h13.579M18.886 38.038H36.99M6.69 46.637l2.517 2.637 2.702-2.83 2.701-2.83M18.886 45.39h13.579M18.886 49.538H36.99" stroke="#F94"/></svg>
